!!!!SEGMENT: pl-wtm--r-555-m_moniuszko-stanislaw--paria-scena-druga.krn
!!!cenid: 18xx:3044
!!!COM: Moniuszko, Stanisław
!!!COM-rismID: pe30008351
!!!CDT: 1819/05/05-1872/06/04
!!!CNT: Polish
!!!GTL: Paria
!!!OTL: Scena druga
!!!PDT:
!!!AGN: Secular
!!!SMS-siglum: PL-Wtm
!!!SMS-shelfmark: R 555/M
!!!SMS-shelfwork: G
!!!SMS-variant:
!!!SMS-altvar:
!!!NIFC-rismSourceID: 1001091078
!!!NIFC-rismChildID: 1001091078
!!!NIFC-islandoraID:
!!!URL-pdf-islandora:
!!!URL-scan:
!!!ONB-nifc: UWAGA: skan 0016
!!!AIN: 1 forte 1 tenor
!!!key:
**kern	**kern	**dynam	**kern	**text	**dynam
*part2	*part2	*part2	*part1	*part1	*part1
*staff3	*staff2	*	*staff1	*staff1	*
*Iforte	*Iforte	*	*Itenor	*	*
*I"[Fortepian]	*I"[Fortepian]	*	*I"[Tenor]	*	*
*clefF4	*clefG2	*	*clefG2	*	*
*	*	*	*ITrd8c12	*	*
*k[f#c#g#]	*k[f#c#g#]	*	*k[f#c#g#]	*	*
*d:	*d:	*	*d:	*	*
*M4/4	*M4/4	*	*M4/4	*	*
*met(c)	*met(c)	*	*met(c)	*	*
=1	=1	=1	=1	=1	=1
*all\right	*all\right	*	*all\right	*	*
!	!	!	!LO:TX:a:i:t=Scena druga. Ci sami i Rataf.	!	!
!LO:TX:t=P:problem=brak klucza	!LO:TX:t=P:problem=brak klucza, znaki f# cc# g#	!	!LO:TX:t=P:problem=brak klucza, znaki f# cc# g#	!	!
!	!	!	!LO:TX:a:t=52b):color=blue	!	!
[1AA [1AAA	[1a [1A	> ]]	1r	.	.
=2	=2	=2	=2	=2	=2
2AA] 2AAA/]	2a] 2A/]	.	2r	.	.
!	!LO:TX:b:i:t=Akebar postępuje ku kobietom, które na jego skinienie \noddalają się parami.	!	!LO:TX:a:i:t=Ratef (ns. do Idamora &colon;)	!	!
2r	2r	.	4A/	Star-	.
.	.	.	8A/	-ca	.
.	.	.	8A/	któ-	.
=3	=3	=3	=3	=3	=3
1r	1r	.	8A/	-re-	.
.	.	.	8E/	-go	.
.	.	.	8E/	pra-	.
.	.	.	8E/	-gniesʒ	.
.	.	.	8F#/	da-	.
.	.	.	8G#/	-rzyć	.
.	.	.	8A/	twą	.
.	.	.	8B/	o-	.
=4	=4	=4	=4	=4	=4
*	*	*	*2\right	*	*
1r	1r	.	2c#\	-pie-	.
.	.	.	4A/	-ką,	.
.	.	.	8A/	nie	.
.	.	.	8A/	zna-	.
!!LO:LB:g=original
=5	=5	=5	=5	=5	=5
*	*^	*	*	*	*
*	*	*tremolo	*	*	*	*
!	!	!	!LO:DY:rj	!	!	!
1D@	4r@	32fnLLL 32d/	fp	8d\	-la-	.
.	.	32f 32d/	.	.	.	.
.	.	32f 32d/	.	.	.	.
.	.	32f 32d/	.	.	.	.
.	.	32f 32d/	.	8A/	-złem	.
.	.	32f 32d/	.	.	.	.
.	.	32f 32d/	.	.	.	.
.	.	32f 32d/	.	.	.	.
!	!	!	!	!LO:TX:a:i:t=Idamor (&colon;ns&colon;)	!	!
.	8A/L@	32f 32d/	.	8r	.	.
.	.	32f 32d/	.	.	.	.
.	.	32f 32d/	.	.	.	.
.	.	32f 32d/	.	.	.	.
*	*	*	*	*clefG2	*	*
.	8d/J@	32f 32d/	.	8d\	O	.
.	.	32f 32d/	.	.	.	.
.	.	32f 32d/	.	.	.	.
.	.	32f 32d/	.	.	.	.
.	8fny/L@	32f 32d/	.	4fn\	nie-	.
.	.	32f 32d/	.	.	.	.
.	.	32f 32d/	.	.	.	.
.	.	32f 32d/	.	.	.	.
.	8a/@	32f 32d/	.	.	.	.
.	.	32f 32d/	.	.	.	.
.	.	32f 32d/	.	.	.	.
.	.	32f 32d/	.	.	.	.
.	8dd/@	32f 32d/	.	8d\	-ba!	.
.	.	32f 32d/	.	.	.	.
.	.	32f 32d/	.	.	.	.
.	.	32f 32d/	.	.	.	.
!	!	!LO:TX:a:i:t=a tempo.	!	!	!	!
.	8ffn/J@	32f 32d/	.	8r	.	.
.	.	32f 32d/	.	.	.	.
.	.	32f 32d/	p	.	.	.
.	.	32fJJJ 32d/	.	.	.	.
*	*	*Xtremolo	*	*	*	*
*	*v	*v	*	*	*	*
=6	=6	=6	=6	=6	=6
*	*^	*	*	*	*
*	*	*2\right	*	*	*	*
!	!LO:TX:a:i:t=Moderato.	!	!	!LO:TX:a:i:t=(&colon;z mocnem wzruszeniem, prawie mówiąc&colon;)	!	!
(4A\	1a 1c#	2e\	.	4r	.	.
!LO:TX:a:i:t=Kobiety odchodzą.	!	!	!	!	!	!
8.G#\L)	.	.	.	4A/	Idź...	.
16F#\Jk	.	.	.	.	.	.
!	!	!LO:T:color=blue	!	!	!	!
4F#\	.	[>2f#\	.	4r	.	.
8.E\L	.	.	.	8A/	Kil-	.
.	.	.	.	8A/	-ku	.
16D\Jk	.	.	.	.	.	.
=7	=7	=7	=7	=7	=7	=7
*	*	*^	*	*	*	*
4D\	4.a/	1f#]	4d\	.	8.A/	wie-	.
.	.	.	.	.	16A/	-rnych	.
8C#/L	.	.	2e\	.	8A/	zbierz	.
8Cn/J	8a#X/	.	.	.	16r	.	.
.	.	.	.	.	16A#X/	i	.
4BB/	2b/	.	.	.	8B/	szu-	.
.	.	.	.	.	8B/	-kaj...	.
4B\	.	.	4d#X\	.	8r	.	.
.	.	.	.	.	8B/	on	.
*	*	*v	*v	*	*	*	*
!!LO:LB:g=original
=8	=8	=8	=8	=8	=8	=8
4B\	2b/	[1gn [1e	.	8.B\	pe-	.
.	.	.	.	16B\	-wnie	.
8.A\L	.	.	.	8B\	błą-	.
.	.	.	.	8B\	-dzi	.
16Gn\Jk	.	.	.	.	.	.
4G\	[2ccn/	.	.	4cn\	stąd	.
8.F#\L	.	.	.	8c\	nie-	.
.	.	.	.	8c\	-da-	.
16E\Jk	.	.	.	.	.	.
=9	=9	=9	=9	=9	=9	=9
(4E\	2ccnX/]	4g] 4e\]	.	8cn\	-le-	.
.	.	.	.	8c\	-ko,	.
8D#X\L	.	2a 2f#X\	.	8r	.	.
8Dn\J	.	.	.	8c\	za-	.
4C#/	2cc#X/	.	.	8.c#X\	-pro-	.
.	.	.	.	16c#\	-wadź	.
4B\)	.	4g#X 4e#X\	.	8c#\	go	.
.	.	.	.	8c#\	do	.
=10	=10	=10	=10	=10	=10	=10
*^	*	*	*	*	*	*
1A	[>1FF#	(<4cc#/	1f#	.	4c#\	sie-	.
.	.	8.b/L)	.	.	8B/	-bie,	.
.	.	.	.	.	16r	.	.
.	.	16a/Jk	.	.	16A/	a	.
.	.	(<4a/	.	.	4A/	o-	.
.	.	8.g#/L)	.	.	8.G#/	-tocz	.
.	.	16f#/Jk	.	.	16F#/	sta-	.
!!LO:LB:g=original
=11	=11	=11	=11	=11	=11	=11	=11
4..A^</	1FF#]	(4f# (4c#/	2ryy	.	4d\	-ra-	.
.	.	8.eL) 8.c#/)	.	.	8c#\	-niem	.
!	!	!	!	!	!	!	!LO:DY:a:t=p.
.	.	.	.	.	8r	.	p
16F#/	.	16dJk 16A/	.	.	.	.	.
(<4F#/	.	(4c#/	2A\	.	8f#^\	Spiesz!	.
!	!	!	!	!	!LO:TX:a:t=Akebar.:color=blue	!	!
.	.	.	.	.	8r	.	.
*	*	*kcancel	*	*	*kcancel	*	*
!	!	!	!	!	!LO:TX:b:i:t=(&colon;Ratef z kilkoma wojownikami odchodzi)	!	!
4D#X/)	.	4B#X/)	.	.	4r	.	.
*	*	*	*	*	*clefF4	*	*
*	*	*v	*v	*	*	*	*
=12||	=12||	=12||	=12||	=12||	=12||	=12||
*k[b-e-a-d-g-]	*	*k[b-e-a-d-g-]	*	*k[b-e-a-d-g-]	*	*
*M12/8	*	*M12/8	*	*M12/8	*	*
!	!LO:S:color=blue	!	!	!LO:TX:a:i:t=un poco piu lento.	!	!
(2.D-/	(4.FF\	(>2.d- 2.A-/	.	1.r	.	.
.	4EEn\	.	.	.	.	.
.	8FF\	.	.	.	.	.
4.E-/	4.GG-\@	2.b-- 2.d-/	.	.	.	.
4.En/)	4.GGn\@	.	.	.	.	.
=13	=13	=13	=13	=13	=13	=13
*	*	*^	*	*	*	*
!LO:ART:color=blue	!	!	!	!	!	!	!
(<4.F^/	1.AA-)	1.a-	2.d-\	.	2.r	.	.
4En/	.	.	.	.	.	.	.
8F/)	.	.	.	.	.	.	.
2.G- 2.E-X/	.	.	2.c\)	.	4r	.	.
.	.	.	.	.	8r	.	.
*	*	*	*	*	*	*color:blue	*
!LO:TX:a:t=197:color=blue	!	!	!	!	!LO:TX:b:t=Vi=:color=blue	!	!
.	.	.	.	.	4.A-\	Bo	.
*v	*v	*	*	*	*	*	*
*	*v	*v	*	*	*	*
==	==	==	==	==	==
*-	*-	*-	*-	*-	*-
!!!system-decoration: {<s1>(s2,s3)}
!!!RDF**kern: > = above
!!!RDF**kern: < = below
!!!RDF**kern: @ = marked note, color=blue
!!!ENC: Anastazja Marusiak
!!!END: 2021-09-08
!!!ENC: Marta Lawrence
!!!END: 2021-10-20
!!!YEC: Copyright 2022 Narodowy Instytut Fryderyka Chopina (https://polishscores.org)
!!!YEM: License CC-BY-4.0 (https://creativecommons.org/licenses/by/4.0)
